svgs/karwei.svg

<svg xmlns="http://www.w3.org/2000/svg" width="192" height="192" fill="none" stroke-width="12" viewBox="0 0 192 192"><path stroke="#000" d="M42 30h30v132H42z"/><path fill="#000" d="M152 162v6l5.603-8.146zm-34 0-5.655 2.006L118 168zm-22-62-5.08-3.193a6 6 0 0 0-.575 5.199zm14.397-29.854 36 94 11.206-4.292-36-94zM152 156h-34v12h34zm-28.345 3.994-22-62-11.31 4.012 22 62zm-22.575-56.801 44-70-10.16-6.386-44 70z"/><path stroke="#000" stroke-linecap="round" d="M30 30h54m30 0h38M30 162h54m20 0h58"/></svg>

<svg xmlns="http://www.w3.org/2000/svg" width="192" height="192" viewBox="0 0 192 192"><path d="M42,30h30v132h-30z" fill-rule="nonZero" stroke-width="12" fill-opacity="0" fill="#000000" stroke="#000000"/><path d="M152,162V168L157.603,159.854L152,162ZM118,162L112.345,164.006L118,168V162ZM96,100L90.92,96.807C89.943,98.361 89.732,100.277 90.345,102.006L96,100ZM110.397,70.146L146.397,164.146L157.603,159.854L121.603,65.854L110.397,70.146ZM152,156H118V168H152V156ZM123.655,159.994L101.655,97.993L90.345,102.006L112.345,164.006L123.655,159.994ZM101.08,103.193L145.08,33.193L134.92,26.807L90.92,96.807L101.08,103.193Z" fill-rule="nonZero" fill="#000000"/><path d="M30,30H84" fill-rule="nonZero" stroke-width="12" fill-opacity="0" fill="#000000" stroke="#000000"/><path d="M114,30L152,30" fill-rule="nonZero" stroke-width="12" fill-opacity="0" fill="#000000" stroke="#000000"/><path d="M30,162H84" fill-rule="nonZero" stroke-width="12" fill-opacity="0" fill="#000000" stroke="#000000"/><path d="M104,162H162" fill-rule="nonZero" stroke-width="12" fill-opacity="0" fill="#000000" stroke="#000000"/></svg>
